assets/icons/dictionary-filled.svg

<?xml version="1.0" encoding="UTF-8" standalone="no"?>
<svg
   viewBox="0 0 24 24"
   height="24"
   id="svg7384"
   version="1.1"
   width="24"
   sodipodi:docname="dictionary-filled.svg"
   inkscape:version="1.2 (1:1.2.1+202207142221+cd75a1ee6d)"
   xmlns:inkscape="http://www.inkscape.org/namespaces/inkscape"
   xmlns:sodipodi="http://sodipodi.sourceforge.net/DTD/sodipodi-0.dtd"
   xmlns="http://www.w3.org/2000/svg"
   xmlns:svg="http://www.w3.org/2000/svg"
   xmlns:rdf="http://www.w3.org/1999/02/22-rdf-syntax-ns#"
   xmlns:cc="http://creativecommons.org/ns#"
   xmlns:dc="http://purl.org/dc/elements/1.1/">
  <sodipodi:namedview
     id="namedview21"
     pagecolor="#ffffff"
     bordercolor="#666666"
     borderopacity="1.0"
     inkscape:pageshadow="2"
     inkscape:pageopacity="0.0"
     inkscape:pagecheckerboard="0"
     showgrid="true"
     width="24px"
     inkscape:zoom="27.999993"
     inkscape:cx="8.4642878"
     inkscape:cy="10.535717"
     inkscape:window-width="1920"
     inkscape:window-height="1043"
     inkscape:window-x="0"
     inkscape:window-y="0"
     inkscape:window-maximized="1"
     inkscape:current-layer="svg7384"
     inkscape:showpageshadow="2"
     inkscape:deskcolor="#d1d1d1">
    <inkscape:grid
       type="xygrid"
       id="grid837"
       dotted="false" />
    <inkscape:grid
       type="xygrid"
       id="grid839"
       dotted="true"
       spacingx="0.5"
       spacingy="0.5"
       empspacing="10" />
  </sodipodi:namedview>
  <metadata
     id="metadata20854">
    <rdf:RDF>
      <cc:Work
         rdf:about="">
        <dc:format>image/svg+xml</dc:format>
        <dc:type
           rdf:resource="http://purl.org/dc/dcmitype/StillImage" />
      </cc:Work>
    </rdf:RDF>
  </metadata>
  <defs
     id="defs7386">
    <linearGradient
       id="linearGradient5606"
       inkscape:swatch="solid">
      <stop
         id="stop5608"
         offset="0"
         style="stop-color:#000000;stop-opacity:1;" />
    </linearGradient>
    <linearGradient
       id="linearGradient4526"
       inkscape:swatch="solid">
      <stop
         id="stop4528"
         offset="0"
         style="stop-color:#ffffff;stop-opacity:1;" />
    </linearGradient>
    <linearGradient
       id="linearGradient3600-4"
       inkscape:swatch="gradient">
      <stop
         id="stop3602-7"
         offset="0"
         style="stop-color:#f4f4f4;stop-opacity:1" />
      <stop
         id="stop3604-6"
         offset="1"
         style="stop-color:#dbdbdb;stop-opacity:1" />
    </linearGradient>
  </defs>
  <g
     id="layer9"
     label="status"
     style="display:inline"
     transform="translate(-613.0002,327)" />
  <g
     id="layer4"
     style="display:inline"
     transform="translate(-372,-39.999996)" />
  <g
     id="g1812"
     style="display:inline"
     transform="translate(-372,-39.999996)" />
  <g
     id="g6217"
     style="display:inline"
     transform="translate(-372,-39.999996)" />
  <g
     id="layer3"
     style="display:inline"
     transform="translate(-372,-39.999996)" />
  <g
     id="g1833"
     style="display:inline"
     transform="translate(-372,-39.999996)" />
  <g
     id="layer1"
     style="display:inline"
     transform="translate(-372,-39.999996)" />
  <path
     id="path361"
     style="color:#000000;fill:#808080;fill-opacity:1"
     d="M 8 2 L 8 22 C 8.1707958 21.999654 8.317405 22 8.5 22 L 15.5 22 C 16.999992 22 18.056056 22.050737 18.882812 21.554688 C 19.296194 21.30666 19.602756 20.89878 19.771484 20.392578 C 19.940218 19.886382 20 19.277771 20 18.5 L 20 5.5 C 20 4.722228 19.94022 4.1136204 19.771484 3.6074219 C 19.602756 3.1012224 19.296194 2.6933395 18.882812 2.4453125 C 18.056056 1.949263 16.999992 2 15.5 2 L 8.5 2 C 8.3176651 2 8.1707341 2.0003663 8 2 z M 7 2.0039062 C 5.8245528 2.0168318 4.9625813 2.0851152 4.2773438 2.4277344 C 3.8029659 2.6649239 3.4414409 3.0749054 3.25 3.5917969 C 3.058559 4.1086874 3 4.722228 3 5.5 L 3 18.5 C 3 19.277771 3.0585586 19.891315 3.25 20.408203 C 3.4414409 20.925097 3.8029659 21.335075 4.2773438 21.572266 C 4.9628586 21.915021 5.8237476 21.985173 7 21.998047 L 7 2.0039062 z M 14.587891 12 C 15.02863 12 15.40066 12.065683 15.703125 12.195312 C 16.014235 12.316296 16.264952 12.488203 16.455078 12.712891 C 16.645194 12.928932 16.784644 13.18778 16.871094 13.490234 C 16.957433 13.79271 17 14.122235 17 14.476562 L 17 18.701172 C 16.913587 18.727132 16.787237 18.758349 16.623047 18.792969 C 16.458846 18.818939 16.268776 18.848293 16.052734 18.882812 C 15.836682 18.917432 15.596029 18.943628 15.328125 18.960938 C 15.068866 18.986797 14.799966 19 14.523438 19 C 14.169121 19 13.841528 18.960612 13.539062 18.882812 C 13.245223 18.805046 12.986417 18.683722 12.761719 18.519531 C 12.545677 18.346696 12.371806 18.132295 12.242188 17.873047 C 12.121249 17.605143 12.060547 17.280633 12.060547 16.900391 C 12.060547 16.537439 12.129314 16.226066 12.267578 15.966797 C 12.405853 15.707549 12.600939 15.496231 12.851562 15.332031 C 13.102165 15.159195 13.400423 15.032878 13.746094 14.955078 C 14.091786 14.877254 14.468831 14.837891 14.875 14.837891 C 14.996005 14.837891 15.12037 14.847924 15.25 14.865234 C 15.388274 14.873894 15.517688 14.890046 15.638672 14.916016 C 15.768302 14.933226 15.876441 14.954499 15.962891 14.980469 C 16.057925 14.997779 16.123583 15.015893 16.158203 15.033203 L 16.158203 14.619141 C 16.158203 14.385808 16.140089 14.161365 16.105469 13.945312 C 16.070908 13.720625 15.994031 13.520492 15.873047 13.347656 C 15.760698 13.166185 15.594959 13.023584 15.378906 12.919922 C 15.17151 12.8076 14.896453 12.751953 14.550781 12.751953 C 14.05819 12.751953 13.689243 12.786329 13.447266 12.855469 C 13.205288 12.924603 13.028365 12.980268 12.916016 13.023438 L 12.800781 12.285156 C 12.947702 12.216023 13.172145 12.150334 13.474609 12.089844 C 13.78571 12.029354 14.155786 12 14.587891 12 z M 14.847656 15.564453 C 14.640248 15.564453 14.423907 15.582568 14.199219 15.617188 C 13.974531 15.643113 13.768251 15.706885 13.578125 15.810547 C 13.388008 15.905615 13.232312 16.040055 13.111328 16.212891 C 12.990389 16.385715 12.929688 16.615217 12.929688 16.900391 C 12.929688 17.151003 12.969075 17.36231 13.046875 17.535156 C 13.133298 17.707992 13.249596 17.845557 13.396484 17.949219 C 13.55206 18.052912 13.73401 18.131654 13.941406 18.183594 C 14.157448 18.226764 14.398112 18.248047 14.666016 18.248047 C 14.994396 18.248047 15.279507 18.239966 15.521484 18.222656 C 15.772087 18.196686 15.985367 18.165479 16.158203 18.130859 L 16.158203 15.771484 C 16.063145 15.728326 15.910522 15.685748 15.703125 15.642578 C 15.495718 15.590748 15.210618 15.564453 14.847656 15.564453 z " />
</svg>

<svg height="24" width="24" xmlns="http://www.w3.org/2000/svg"><path style="color:#000;fill:gray;fill-opacity:1" d="M8 2v20h7.5c1.5 0 2.556.05 3.383-.445.413-.248.72-.656.888-1.162.17-.507.229-1.115.229-1.893v-13c0-.778-.06-1.386-.229-1.893-.168-.506-.475-.914-.888-1.162C18.056 1.95 17 2 15.5 2H8zm-1 .004c-1.175.013-2.037.081-2.723.424A2.097 2.097 0 0 0 3.25 3.592C3.059 4.109 3 4.722 3 5.5v13c0 .778.059 1.391.25 1.908.191.517.553.927 1.027 1.164.686.343 1.547.413 2.723.426V2.004zM14.588 12c.44 0 .813.066 1.115.195.311.121.562.293.752.518.19.216.33.475.416.777.086.303.129.632.129.987V18.7a4.912 4.912 0 0 1-.377.092l-.57.09a7.76 7.76 0 0 1-.725.078c-.26.026-.528.039-.805.039a3.94 3.94 0 0 1-.984-.117 2.3 2.3 0 0 1-.777-.363 1.91 1.91 0 0 1-.52-.647c-.12-.268-.181-.592-.181-.973 0-.363.068-.674.207-.933.138-.26.333-.47.584-.635.25-.173.548-.3.894-.377a5.143 5.143 0 0 1 1.129-.117c.121 0 .245.01.375.027.138.009.268.025.389.051.13.017.237.038.324.064a.83.83 0 0 1 .195.053v-.414c0-.233-.018-.458-.053-.674a1.398 1.398 0 0 0-.232-.597 1.146 1.146 0 0 0-.494-.428c-.207-.112-.483-.168-.828-.168-.493 0-.862.034-1.104.103-.242.07-.419.125-.531.168l-.115-.738c.147-.069.371-.135.674-.195.31-.06.68-.09 1.113-.09zm.26 3.564c-.208 0-.424.019-.649.053-.224.026-.43.09-.62.194a1.24 1.24 0 0 0-.468.402c-.12.173-.181.402-.181.687 0 .251.04.462.117.635.086.173.203.31.35.414.155.104.337.183.544.235.216.043.457.064.725.064.328 0 .614-.008.855-.025.251-.026.464-.058.637-.092v-2.36a2.371 2.371 0 0 0-.455-.128 3.665 3.665 0 0 0-.855-.079z"/></svg>
